X:1
T:Christ the Lord Is Risen
T:Christ the Lord Is Risen
T:Henry Southwick Perkins
T:Henry Southwick Perkins, 1891
T:Public Domain Courtesy of the Cyber Hymnal™
C:Henry Southwick Perkins
Z:Public Domain
Z:Courtesy of the Cyber Hymnal™
%%score ( 1 2 ) ( 3 4 )
L:1/8
Q:1/4=100
M:6/8
K:G
V:1 treble 
V:2 treble 
V:3 bass 
V:4 bass 
V:1
 [GB][GB][GB] ([GB][FA])G | [FA]3 D3 | [FA]3 ([FA]G)[FA] | [GB]3- [GB]2 z | %4
w: 1.~“Sweet- ly the birds * are|sing- ing|At Eas- * ter|dawn; *|
w: 2.~Sweet- est of flowers * were|grow- ing,|Ag- es * a-|go; *|
w: 3.~Je- sus has risen * to|glo- ry|To live * and|reign; *|
 [GB][GB][GB] ([GB][FA])G | [FA]3 D3 | [FA]3 ([FA]G)[DF] | [DG]3- [DG]2 z | %8
w: Sweet- ly the bells * are|ring- ing|On Eas- * ter|morn”; *|
w: Lil- ies for Eas- * ter|bloom- ing|White as * the|snow; *|
w: Tell it in song * and|sto- ry,|O- ver * a-|gain; *|
 [Ec]2 [Ec] [Ec][Ec][Ec] | ([DB]3 [Gd]3) | [DB]2 [EB] [FA][GB][G^c] | %11
w: And the tid- ings they|bring, *|Bells, and song- sters that|
w: And all na- ture was|glad, *|Not a crea- ture was|
w: He’s the light of the|world, *|See His ban- ner un-|
 !fermata![Fd]3 !fermata![Ad]3 | [GB]2 [GB] [GB]2 G | ([FA]2 [GB]) [Ac]3 | [Fc]2 [Fc] [Fc]2 [FA] | %15
w: sing, Are,|Christ the Lord is|ris- * en,|Christ the Lord is|
w: sad, For|Christ the Lord is|ris- * en,|Christ the Lord is|
w: furled; So,|Christ the Lord is|ris- * en,|Christ the Lord is|
 ([GB]2 [Ac]) [Bd]3 ||"^Refrain" [Gd]3 [GB]3 | [Fc]3 [FA]3 | [FA]2 [FA] ([FA][GB])[Ac] | %19
w: ris- * en.||||
w: ris- * en.|Hal- le-|lu- jah!|Glo- ry hal- * le-|
w: ris- * en.||||
 [GB]3 [Gd]3 | [Gd]3 [GB]3 | [Fc]3 [FA]3 | [Fd]2 [GB] [Ac][GB][FA] | G2- G2 z |] %24
w: |||||
w: lu- jah!|Hal- le-|lu- jah,|Hal- le- lu- jah, A-|men. *|
w: |||||
V:2
 x5 G | x3 D3 | x4 G x | x6 | x5 G | x3 D3 | x4 G x | x6 | x6 | x6 | x6 | x6 | x5 G | x6 | x6 | %15
 x6 || x6 | x6 | x6 | x6 | x6 | x6 | x6 | G2- G2 x |] %24
V:3
 [G,D][G,D][G,D] (DC)[G,B,] | [D,D]3 [D,F,]3 | [D,C]3 (CB,)[D,D] | [G,D]3- [G,D]2 z | %4
 [G,D][G,D][G,D] (DC)[G,B,] | [D,D]3 [D,F,]3 | [D,C]3 (CB,)[D,A,] | [G,,G,B,]3- [G,,G,B,]2 z | %8
 [C,G,]2 [C,G,] [C,G,][C,G,][C,G,] | G,3 [G,B,]3 | G,2 [E,G,] A,A,A, | %11
 !fermata![D,A,]3 !fermata![F,D]3 | [G,D]2 [G,D] [G,D]2 [G,B,] | ([D,D]3 [D,D]3) | %14
 [D,A,]2 [D,A,] [D,A,]2 [D,D] | ([G,D]3 [G,D]3) || [G,B,]3 [G,D]3 | [D,D]3 [D,D]3 | %18
 [D,D]2 [D,D] [D,D]2 [D,D] | [G,D]3 [G,B,]3 | [G,B,]3 [G,D]3 | [D,D]3 [D,D]3 | %22
 [D,A,]2 [D,D] [D,D][D,D][D,C] | [G,,B,]2- [G,,B,]2 z |] %24
V:4
 x3 G,2 x | x6 | x3 D,2 x | x6 | x3 G,2 x | x6 | x3 D,2 x | x6 | x6 | G,3 x3 | G,2 A, A,A, x | x6 | %12
 x6 | x6 | x6 | x6 || x6 | x6 | x6 | x6 | x6 | x6 | x6 | x5 |] %24

